;FLAVOR:UltiGCode
;TIME:6313
;MATERIAL:5986
;MATERIAL2:0
;NOZZLE_DIAMETER:0.4
;Generated with Cura_SteamEngine 3.6.0
M82 ;absolute extrusion mode

G92 E0
G10
;LAYER_COUNT:100
;LAYER:0
M107
G0 F4320 X74.999 Y95.023 Z0.27
;TYPE:SKIRT
G11
G1 F1800 X75.648 Y94.567 E0.07496
G1 X76.34 Y94.178 E0.14997
G1 X77.067 Y93.86 E0.22496
G1 X77.823 Y93.617 E0.3
G1 X78.599 Y93.452 E0.37497
G1 X79.387 Y93.366 E0.44988
G1 X79.85 Y93.352 E0.49366
G1 X80.756 Y93.352 E0.57927
G1 X80.8 Y93.314 E0.58477
G1 X81.449 Y92.858 E0.65972
G1 X82.141 Y92.469 E0.73474
G1 X82.868 Y92.151 E0.80973
G1 X83.624 Y91.908 E0.88477
G1 X84.4 Y91.743 E0.95974
G1 X85.188 Y91.657 E1.03465
G1 X85.651 Y91.643 E1.07842
G1 X102.651 Y91.643 E2.68492
G1 X103.443 Y91.683 E2.75986
G1 X103.802 Y91.737 E2.79417
G1 X104.007 Y91.182 E2.85008
G1 X104.354 Y90.469 E2.92501
G1 X104.772 Y89.794 E3.00004
G1 X105.255 Y89.165 E3.07498
G1 X105.8 Y88.588 E3.14999
G1 X106.399 Y88.068 E3.22495
G1 X107.048 Y87.612 E3.2999
G1 X107.74 Y87.223 E3.37492
G1 X108.467 Y86.905 E3.44991
G1 X109.223 Y86.662 E3.52495
G1 X109.999 Y86.497 E3.59992
G1 X110.787 Y86.411 E3.67483
G1 X111.25 Y86.397 E3.7186
G1 X143.052 Y86.397 E6.72389
G1 X143.844 Y86.437 E6.79883
G1 X144.629 Y86.556 E6.87386
G1 X145.397 Y86.754 E6.94881
G1 X146.142 Y87.029 E7.02386
G1 X146.855 Y87.376 E7.09879
G1 X147.53 Y87.794 E7.17382
G1 X148.159 Y88.277 E7.24876
G1 X148.736 Y88.822 E7.32377
G1 X149.256 Y89.421 E7.39873
G1 X149.712 Y90.07 E7.47368
G1 X150.101 Y90.762 E7.5487
G1 X150.419 Y91.489 E7.62369
G1 X150.662 Y92.245 E7.69873
G1 X150.827 Y93.021 E7.7737
G1 X150.913 Y93.809 E7.84861
G1 X150.927 Y94.272 E7.89238
G1 X150.927 Y125.073 E10.80307
G1 X150.887 Y125.865 E10.87801
G1 X150.768 Y126.65 E10.95304
G1 X150.57 Y127.418 E11.02799
G1 X150.295 Y128.163 E11.10304
G1 X149.948 Y128.876 E11.17797
G1 X149.53 Y129.551 E11.253
G1 X149.047 Y130.18 E11.32794
G1 X148.502 Y130.757 E11.40295
G1 X147.903 Y131.277 E11.47791
G1 X147.254 Y131.733 E11.55286
G1 X146.562 Y132.122 E11.62788
G1 X145.835 Y132.44 E11.70287
G1 X145.079 Y132.683 E11.77791
G1 X144.303 Y132.848 E11.85288
G1 X143.515 Y132.934 E11.92779
G1 X143.052 Y132.948 E11.97156
G1 X115.152 Y132.948 E14.60811
G1 X114.93 Y133.306 E14.64792
G1 X114.447 Y133.935 E14.72286
G1 X113.902 Y134.512 E14.79787
G1 X113.303 Y135.032 E14.87283
G1 X112.654 Y135.488 E14.94778
G1 X111.962 Y135.877 E15.0228
G1 X111.235 Y136.195 E15.09779
G1 X110.479 Y136.438 E15.17283
G1 X109.703 Y136.603 E15.2478
G1 X108.915 Y136.689 E15.32271
G1 X108.452 Y136.703 E15.36648
G1 X79.85 Y136.703 E18.06937
G1 X79.058 Y136.663 E18.14431
G1 X78.273 Y136.544 E18.21934
G1 X77.505 Y136.346 E18.29429
G1 X76.76 Y136.071 E18.36934
G1 X76.047 Y135.724 E18.44427
G1 X75.372 Y135.306 E18.5193
G1 X74.743 Y134.823 E18.59424
G1 X74.166 Y134.278 E18.66925
G1 X73.646 Y133.679 E18.74421
G1 X73.19 Y133.03 E18.81916
G1 X72.801 Y132.338 E18.89418
G1 X72.483 Y131.611 E18.96917
G1 X72.24 Y130.855 E19.04421
G1 X72.075 Y130.079 E19.11918
G1 X71.989 Y129.291 E19.19409
G1 X71.975 Y128.828 E19.23786
G1 X71.975 Y101.227 E21.84616
G1 X72.015 Y100.435 E21.92109
G1 X72.134 Y99.65 E21.99612
G1 X72.332 Y98.882 E22.07107
G1 X72.607 Y98.137 E22.14612
G1 X72.954 Y97.424 E22.22105
G1 X73.372 Y96.749 E22.29608
G1 X73.855 Y96.12 E22.37102
G1 X74.4 Y95.543 E22.44603
G1 X74.999 Y95.023 E22.52099
G0 F4320 X75.34 Y95.203
G1 F1800 X75.984 Y94.771 E22.59427
G1 X76.669 Y94.408 E22.66753
G1 X77.388 Y94.116 E22.74087
G1 X78.133 Y93.901 E22.81414
G1 X78.896 Y93.763 E22.88741
G1 X79.85 Y93.702 E22.97775
G1 X80.892 Y93.702 E23.07622
G1 X81.141 Y93.494 E23.10688
G1 X81.785 Y93.062 E23.18016
G1 X82.47 Y92.699 E23.25342
G1 X83.189 Y92.407 E23.32676
G1 X83.934 Y92.192 E23.40003
G1 X84.697 Y92.054 E23.47331
G1 X85.651 Y91.993 E23.56364
G1 X102.651 Y91.993 E25.17014
G1 X103.426 Y92.033 E25.24348
G1 X104.043 Y92.129 E25.30249
G1 X104.082 Y91.981 E25.31695
G1 X104.356 Y91.255 E25.39028
G1 X104.703 Y90.562 E25.46352
G1 X105.12 Y89.908 E25.53682
G1 X105.602 Y89.3 E25.61014
G1 X106.144 Y88.745 E25.68345
G1 X106.74 Y88.248 E25.75678
G1 X107.384 Y87.816 E25.83006
G1 X108.069 Y87.453 E25.90332
G1 X108.788 Y87.161 E25.97666
G1 X109.533 Y86.946 E26.04994
G1 X110.296 Y86.808 E26.12321
G1 X111.25 Y86.747 E26.21355
G1 X143.052 Y86.747 E29.21883
G1 X143.827 Y86.787 E29.29217
G1 X144.593 Y86.906 E29.36542
G1 X145.343 Y87.104 E29.43873
G1 X146.069 Y87.378 E29.51206
G1 X146.762 Y87.725 E29.5853
G1 X147.416 Y88.142 E29.6586
G1 X148.024 Y88.624 E29.73192
G1 X148.579 Y89.166 E29.80522
G1 X149.076 Y89.762 E29.87856
G1 X149.508 Y90.406 E29.95184
G1 X149.871 Y91.091 E30.0251
G1 X150.163 Y91.81 E30.09844
G1 X150.378 Y92.555 E30.17171
G1 X150.516 Y93.318 E30.24499
G1 X150.577 Y94.272 E30.33532
G1 X150.577 Y125.073 E33.24602
G1 X150.537 Y125.848 E33.31935
G1 X150.418 Y126.614 E33.39261
G1 X150.22 Y127.364 E33.46591
G1 X149.946 Y128.09 E33.53924
G1 X149.599 Y128.783 E33.61248
G1 X149.182 Y129.437 E33.68578
G1 X148.7 Y130.045 E33.7591
G1 X148.158 Y130.6 E33.83241
G1 X147.562 Y131.097 E33.90574
G1 X146.918 Y131.529 E33.97902
G1 X146.233 Y131.892 E34.05228
G1 X145.514 Y132.184 E34.12562
G1 X144.769 Y132.399 E34.19889
G1 X144.006 Y132.537 E34.27217
G1 X143.052 Y132.598 E34.36251
G1 X114.961 Y132.598 E37.0171
G1 X114.582 Y133.192 E37.08369
G1 X114.1 Y133.8 E37.15701
G1 X113.558 Y134.355 E37.23032
G1 X112.962 Y134.852 E37.30365
G1 X112.318 Y135.284 E37.37694
G1 X111.633 Y135.647 E37.4502
G1 X110.914 Y135.939 E37.52353
G1 X110.169 Y136.154 E37.59681
G1 X109.406 Y136.292 E37.67008
G1 X108.452 Y136.353 E37.76042
G1 X79.85 Y136.353 E40.46331
G1 X79.075 Y136.313 E40.53664
G1 X78.309 Y136.194 E40.6099
G1 X77.559 Y135.996 E40.6832
G1 X76.833 Y135.722 E40.75653
G1 X76.14 Y135.375 E40.82977
G1 X75.486 Y134.958 E40.90307
G1 X74.878 Y134.476 E40.97639
G1 X74.323 Y133.934 E41.0497
G1 X73.826 Y133.338 E41.12303
G1 X73.394 Y132.694 E41.19631
G1 X73.031 Y132.009 E41.26957
G1 X72.739 Y131.29 E41.34291
G1 X72.524 Y130.545 E41.41618
G1 X72.386 Y129.782 E41.48946
G1 X72.325 Y128.828 E41.57979
G1 X72.325 Y101.227 E44.18809
G1 X72.365 Y100.452 E44.26142
G1 X72.484 Y99.686 E44.33468
G1 X72.682 Y98.936 E44.40798
G1 X72.956 Y98.21 E44.48131
G1 X73.303 Y97.517 E44.55455
G1 X73.72 Y96.863 E44.62785
G1 X74.202 Y96.255 E44.70117
G1 X74.744 Y95.7 E44.77448
G1 X75.34 Y95.203 E44.84781
G0 F4320 X75.679 Y95.389
G1 F1800 X76.318 Y94.982 E44.91941
G1 X76.996 Y94.644 E44.991
G1 X77.705 Y94.38 E45.06249
G1 X78.439 Y94.192 E45.1341
G1 X79.188 Y94.083 E45.20562
G1 X79.85 Y94.052 E45.26825
G1 X81.013 Y94.052 E45.37815
G1 X81.48 Y93.68 E45.43457
G1 X82.119 Y93.273 E45.50617
G1 X82.797 Y92.935 E45.57776
G1 X83.506 Y92.671 E45.64925
G1 X84.24 Y92.483 E45.72086
G1 X84.989 Y92.374 E45.79238
G1 X85.651 Y92.343 E45.85501
G1 X102.651 Y92.343 E47.46151
G1 X103.407 Y92.383 E47.53305
G1 X104.155 Y92.502 E47.60463
G1 X104.296 Y92.54 E47.61843
G1 X104.432 Y92.037 E47.66767
G1 X104.706 Y91.33 E47.73932
G1 X105.052 Y90.657 E47.81083
G1 X105.468 Y90.024 E47.88241
G1 X105.948 Y89.438 E47.954
G1 X106.487 Y88.906 E48.02556
G1 X107.079 Y88.434 E48.09711
G1 X107.718 Y88.027 E48.16871
G1 X108.396 Y87.689 E48.2403
G1 X109.105 Y87.425 E48.31179
G1 X109.839 Y87.237 E48.38339
G1 X110.588 Y87.128 E48.45492
G1 X111.25 Y87.097 E48.51755
G1 X143.052 Y87.097 E51.52284
G1 X143.808 Y87.137 E51.59438
G1 X144.556 Y87.256 E51.66595
G1 X145.287 Y87.454 E51.73752
G1 X145.994 Y87.728 E51.80918
G1 X146.667 Y88.074 E51.88069
G1 X147.3 Y88.49 E51.95227
G1 X147.886 Y88.97 E52.02385
G1 X148.418 Y89.509 E52.09542
G1 X148.89 Y90.101 E52.16697
G1 X149.297 Y90.74 E52.23856
G1 X149.635 Y91.418 E52.31015
G1 X149.899 Y92.127 E52.38165
G1 X150.087 Y92.861 E52.45325
G1 X150.196 Y93.61 E52.52477
G1 X150.227 Y94.272 E52.5874
G1 X150.227 Y125.073 E55.4981
G1 X150.187 Y125.829 E55.56964
G1 X150.068 Y126.577 E55.64121
G1 X149.87 Y127.308 E55.71278
G1 X149.596 Y128.015 E55.78444
G1 X149.25 Y128.688 E55.85595
G1 X148.834 Y129.321 E55.92753
G1 X148.354 Y129.907 E55.99911
G1 X147.815 Y130.439 E56.07068
G1 X147.223 Y130.911 E56.14223
G1 X146.584 Y131.318 E56.21382
G1 X145.906 Y131.656 E56.28541
G1 X145.197 Y131.92 E56.35691
G1 X144.463 Y132.108 E56.42851
G1 X143.714 Y132.217 E56.50003
G1 X143.052 Y132.248 E56.56266
G1 X114.75 Y132.248 E59.2372
G1 X114.65 Y132.443 E59.25791
G1 X114.234 Y133.076 E59.32949
G1 X113.754 Y133.662 E59.40107
G1 X113.215 Y134.194 E59.47264
G1 X112.623 Y134.666 E59.54419
G1 X111.984 Y135.073 E59.61578
G1 X111.306 Y135.411 E59.68737
G1 X110.597 Y135.675 E59.75887
G1 X109.863 Y135.863 E59.83047
G1 X109.114 Y135.972 E59.902
G1 X108.452 Y136.003 E59.96462
G1 X79.85 Y136.003 E62.66751
G1 X79.094 Y135.963 E62.73906
G1 X78.346 Y135.844 E62.81063
G1 X77.615 Y135.646 E62.8822
G1 X76.908 Y135.372 E62.95385
G1 X76.235 Y135.026 E63.02536
G1 X75.602 Y134.61 E63.09694
G1 X75.016 Y134.13 E63.16853
G1 X74.484 Y133.591 E63.24009
G1 X74.012 Y132.999 E63.31164
G1 X73.605 Y132.36 E63.38324
G1 X73.267 Y131.682 E63.45483
G1 X73.003 Y130.973 E63.52632
G1 X72.815 Y130.239 E63.59793
G1 X72.706 Y129.49 E63.66945
G1 X72.675 Y128.828 E63.73208
G1 X72.675 Y101.227 E66.34037
G1 X72.715 Y100.471 E66.41192
G1 X72.834 Y99.723 E66.48349
G1 X73.032 Y98.992 E66.55506
G1 X73.306 Y98.285 E66.62671
G1 X73.652 Y97.612 E66.69822
G1 X74.068 Y96.979 E66.7698
G1 X74.548 Y96.393 E66.84139
G1 X75.087 Y95.861 E66.91295
G1 X75.679 Y95.389 E66.9845
G0 F4320 X75.429 Y96.027
G1 F1800 X76.017 Y95.58 E67.0543
G1 X76.65 Y95.199 E67.12412
G1 X77.32 Y94.888 E67.19392
G1 X78.02 Y94.652 E67.26373
G1 X78.741 Y94.493 E67.3335
G1 X79.476 Y94.412 E67.40338
G1 X79.85 Y94.402 E67.43874
G1 X81.141 Y94.402 E67.56074
G1 X81.23 Y94.318 E67.5723
G1 X81.818 Y93.871 E67.6421
G1 X82.451 Y93.49 E67.71192
G1 X83.121 Y93.179 E67.78172
G1 X83.821 Y92.943 E67.85153
G1 X84.542 Y92.784 E67.9213
G1 X85.277 Y92.703 E67.99118
G1 X85.651 Y92.693 E68.02654
G1 X102.651 Y92.693 E69.63304
G1 X103.389 Y92.733 E69.70288
G1 X104.117 Y92.852 E69.77259
G1 X104.557 Y92.974 E69.81574
G1 X104.584 Y92.806 E69.83182
G1 X104.782 Y92.094 E69.90165
G1 X105.055 Y91.408 E69.97143
G1 X105.401 Y90.755 E70.04126
G1 X105.815 Y90.143 E70.11109
G1 X106.293 Y89.58 E70.18088
G1 X106.829 Y89.072 E70.25067
G1 X107.417 Y88.625 E70.32046
G1 X108.05 Y88.244 E70.39028
G1 X108.72 Y87.933 E70.46009
G1 X109.42 Y87.697 E70.52989
G1 X110.141 Y87.538 E70.59967
G1 X110.876 Y87.457 E70.66954
G1 X111.25 Y87.447 E70.7049
G1 X143.052 Y87.447 E73.71019
G1 X143.79 Y87.487 E73.78003
G1 X144.518 Y87.606 E73.84974
G1 X145.23 Y87.804 E73.91958
G1 X145.916 Y88.077 E73.98935
G1 X146.569 Y88.423 E74.05919
G1 X147.181 Y88.837 E74.12901
G1 X147.744 Y89.315 E74.1988
G1 X148.252 Y89.851 E74.26859
G1 X148.699 Y90.439 E74.33839
G1 X149.08 Y91.072 E74.40821
G1 X149.391 Y91.742 E74.47801
G1 X149.627 Y92.442 E74.54782
G1 X149.786 Y93.163 E74.61759
G1 X149.867 Y93.898 E74.68747
G1 X149.877 Y94.272 E74.72282
G1 X149.877 Y125.073 E77.63352
G1 X149.837 Y125.811 E77.70336
G1 X149.718 Y126.539 E77.77307
G1 X149.52 Y127.251 E77.84291
G1 X149.247 Y127.937 E77.91268
G1 X148.901 Y128.59 E77.98252
G1 X148.487 Y129.202 E78.05234
G1 X148.009 Y129.765 E78.12213
G1 X147.473 Y130.273 E78.19192
G1 X146.885 Y130.72 E78.26172
G1 X146.252 Y131.101 E78.33154
G1 X145.582 Y131.412 E78.40134
G1 X144.882 Y131.648 E78.47115
G1 X144.161 Y131.807 E78.54092
G1 X143.426 Y131.888 E78.6108
G1 X143.052 Y131.898 E78.64615
G1 X114.538 Y131.898 E81.34073
G1 X114.301 Y132.345 E81.38854
G1 X113.887 Y132.957 E81.45836
G1 X113.409 Y133.52 E81.52816
G1 X112.873 Y134.028 E81.59794
G1 X112.285 Y134.475 E81.66774
G1 X111.652 Y134.856 E81.73756
G1 X110.982 Y135.167 E81.80736
G1 X110.282 Y135.403 E81.87717
G1 X109.561 Y135.562 E81.94694
G1 X108.826 Y135.643 E82.01682
G1 X108.452 Y135.653 E82.05218
G1 X79.85 Y135.653 E84.75507
G1 X79.112 Y135.613 E84.82491
G1 X78.384 Y135.494 E84.89462
G1 X77.672 Y135.296 E84.96445
G1 X76.986 Y135.023 E85.03423
G1 X76.333 Y134.677 E85.10406
G1 X75.721 Y134.263 E85.17389
G1 X75.158 Y133.785 E85.24368
G1 X74.65 Y133.249 E85.31347
G1 X74.203 Y132.661 E85.38327
G1 X73.822 Y132.028 E85.45308
G1 X73.511 Y131.358 E85.52289
G1 X73.275 Y130.658 E85.5927
G1 X73.116 Y129.937 E85.66247
G1 X73.035 Y129.202 E85.73234
G1 X73.025 Y128.828 E85.7677
G1 X73.025 Y101.227 E88.37599
G1 X73.065 Y100.489 E88.44584
G1 X73.184 Y99.761 E88.51555
G1 X73.382 Y99.049 E88.58538
G1 X73.655 Y98.363 E88.65516
G1 X74.001 Y97.71 E88.72499
G1 X74.415 Y97.098 E88.79482
G1 X74.893 Y96.535 E88.86461
G1 X75.429 Y96.027 E88.9344
G0 F4320 X75.771 Y96.198
G1 F1800 X76.354 Y95.777 E89.00235
G1 X76.981 Y95.423 E89.0704
G1 X77.642 Y95.14 E89.13834
G1 X78.331 Y94.933 E89.20633
G1 X79.039 Y94.803 E89.27435
G1 X79.85 Y94.752 E89.35114
G1 X81.283 Y94.752 E89.48656
G1 X81.572 Y94.489 E89.52349
G1 X82.155 Y94.068 E89.59145
G1 X82.782 Y93.714 E89.65949
G1 X83.443 Y93.431 E89.72744
G1 X84.132 Y93.224 E89.79542
G1 X84.84 Y93.094 E89.86345
G1 X85.651 Y93.043 E89.94024
G1 X102.651 Y93.043 E91.54674
G1 X103.369 Y93.083 E91.6147
G1 X104.079 Y93.202 E91.68273
G1 X104.771 Y93.4 E91.75074
G1 X104.836 Y93.427 E91.7574
G1 X104.934 Y92.844 E91.81326
G1 X105.132 Y92.152 E91.88128
G1 X105.405 Y91.487 E91.94921
G1 X105.75 Y90.855 E92.01726
G1 X106.163 Y90.266 E92.08524
G1 X106.639 Y89.727 E92.15319
G1 X107.171 Y89.243 E92.22116
G1 X107.754 Y88.822 E92.28911
G1 X108.381 Y88.468 E92.35716
G1 X109.042 Y88.185 E92.4251
G1 X109.731 Y87.978 E92.49309
G1 X110.439 Y87.848 E92.56111
G1 X111.25 Y87.797 E92.63791
G1 X143.052 Y87.797 E95.64319
G1 X143.77 Y87.837 E95.71115
G1 X144.48 Y87.956 E95.77918
G1 X145.172 Y88.154 E95.8472
G1 X145.837 Y88.427 E95.91513
G1 X146.469 Y88.772 E95.98318
G1 X147.058 Y89.185 E96.05116
G1 X147.597 Y89.661 E96.11911
G1 X148.081 Y90.193 E96.18708
G1 X148.502 Y90.776 E96.25503
G1 X148.856 Y91.403 E96.32308
G1 X149.139 Y92.064 E96.39102
G1 X149.346 Y92.753 E96.45901
G1 X149.476 Y93.461 E96.52703
G1 X149.527 Y94.272 E96.60383
G1 X149.527 Y125.073 E99.51452
G1 X149.487 Y125.791 E99.58248
G1 X149.368 Y126.501 E99.65051
G1 X149.17 Y127.193 E99.71853
G1 X148.897 Y127.858 E99.78646
G1 X148.552 Y128.49 E99.8545
G1 X148.139 Y129.079 E99.92248
G1 X147.663 Y129.618 E99.99044
G1 X147.131 Y130.102 E100.0584
G1 X146.548 Y130.523 E100.12636
G1 X145.921 Y130.877 E100.1944
G1 X145.26 Y131.16 E100.26235
G1 X144.571 Y131.367 E100.33034
G1 X143.863 Y131.497 E100.39836
G1 X143.052 Y131.548 E100.47515
G1 X114.324 Y131.548 E103.18995
G1 X114.297 Y131.613 E103.1966
G1 X113.952 Y132.245 E103.26464
G1 X113.539 Y132.834 E103.33262
G1 X113.063 Y133.373 E103.40058
G1 X112.531 Y133.857 E103.46854
G1 X111.948 Y134.278 E103.5365
G1 X111.321 Y134.632 E103.60454
G1 X110.66 Y134.915 E103.67249
G1 X109.971 Y135.122 E103.74048
G1 X109.263 Y135.252 E103.8085
G1 X108.452 Y135.303 E103.88529
G1 X79.85 Y135.303 E106.58818
G1 X79.132 Y135.263 E106.65614
G1 X78.422 Y135.144 E106.72417
G1 X77.73 Y134.946 E106.79219
G1 X77.065 Y134.673 E106.86012
G1 X76.433 Y134.328 E106.92816
G1 X75.844 Y133.915 E106.99614
G1 X75.305 Y133.439 E107.0641
G1 X74.821 Y132.907 E107.13206
G1 X74.4 Y132.324 E107.20002
G1 X74.046 Y131.697 E107.26806
G1 X73.763 Y131.036 E107.33601
G1 X73.556 Y130.347 E107.404
G1 X73.426 Y129.639 E107.47202
G1 X73.375 Y128.828 E107.54881
G1 X73.375 Y101.227 E110.15711
G1 X73.415 Y100.509 E110.22506
G1 X73.534 Y99.799 E110.29309
G1 X73.732 Y99.107 E110.36111
G1 X74.005 Y98.442 E110.42904
G1 X74.35 Y97.81 E110.49709
G1 X74.763 Y97.221 E110.56507
G1 X75.239 Y96.682 E110.63302
G1 X75.771 Y96.198 E110.70099
G0 F4320 X76.112 Y96.375
G1 F1800 X76.69 Y95.98 E110.76714
G1 X77.309 Y95.654 E110.83326
G1 X77.961 Y95.4 E110.89938
G1 X78.638 Y95.223 E110.96551
G1 X79.331 Y95.124 E111.03166
G1 X79.85 Y95.102 E111.08075
G1 X81.409 Y95.102 E111.22808
G1 X81.913 Y94.666 E111.29105
G1 X82.491 Y94.271 E111.35721
G1 X83.11 Y93.945 E111.42332
G1 X83.762 Y93.691 E111.48945
G1 X84.439 Y93.514 E111.55557
G1 X85.132 Y93.415 E111.62173
G1 X85.651 Y93.393 E111.67082
G1 X102.651 Y93.393 E113.27732
G1 X103.35 Y93.433 E113.34348
G1 X104.039 Y93.552 E113.40955
G1 X104.71 Y93.75 E113.47567
G1 X105.144 Y93.933 E113.52018
